svg/krusader.svg

<?xml version="1.0" encoding="UTF-8" standalone="no"?>
<svg
   xmlns:svg="http://www.w3.org/2000/svg"
   xmlns="http://www.w3.org/2000/svg"
   version="1.0"
   width="200.00003"
   height="199.99998"
   id="svg1803">
  <defs
     id="defs3" />
  <path
     d="M 1.35629,168.24998 C 1.35629,168.24998 18.61115,193.99998 18.61115,193.99998 L 181.76464,193.99998 C 181.76464,193.99998 197.82336,168.24998 197.82336,168.24998 L 1.35629,168.24998 z"
     id="path2986"
     style="fill:#bebed2" />
  <path
     d="M 196.57336,36.31613 L 3.41879,36.31613 L 3.41879,165.44012 L 196.57336,165.44012 L 196.57336,36.31613 z"
     id="path2988"
     style="fill:#9696ff" />
  <path
     d="M 18.48615,5.42687 C 18.48615,5.42687 1.91879,33.23431 1.91879,33.23431 L 198.32336,33.23431 C 198.32336,33.23431 180.51464,5.42687 180.51464,5.42687 L 18.48615,5.42687 z"
     id="path2990"
     style="fill:#bebed2" />
  <path
     d="M 31.68544,16.65283 C 30.44953,16.63535 29.29996,17.28466 28.67687,18.35211 C 28.05378,19.41957 28.05378,20.7398 28.67687,21.80726 C 29.29996,22.87472 30.44953,23.52403 31.68544,23.50654 L 152.65867,23.50654 C 153.89457,23.52403 155.04415,22.87472 155.66724,21.80726 C 156.29022,20.7398 156.29022,19.41957 155.66724,18.35211 C 155.04415,17.28466 153.89457,16.63535 152.65867,16.65283 L 31.68544,16.65283 z"
     id="path2992"
     style="fill:#323264" />
  <path
     d="M 34.23583,0 C 15.32809,0 0,15.32741 0,34.23431 L 0,165.76567 C 0,184.67257 15.32809,199.99998 34.23583,199.99998 L 165.7642,199.99998 C 184.67194,199.99998 199.99992,184.67257 200.00003,165.76567 L 200.00003,34.23431 C 200.00003,15.32741 184.67194,0 165.7642,0 L 34.23583,0 z M 34.23583,6.85372 L 165.7642,6.85372 C 180.24977,6.85372 191.92642,17.85396 193.03458,32.03256 L 6.96533,31.94689 C 8.11349,17.80922 19.7791,6.85372 34.23583,6.85372 z M 6.85398,38.8006 L 96.6158,38.84343 L 96.52161,162.07323 L 6.85398,162.0304 L 6.85398,38.8006 z M 103.46979,38.84343 L 193.14604,38.88627 L 193.14604,162.11607 L 103.37559,162.07323 L 103.46979,38.84343 z M 7.03396,168.88411 L 192.94891,168.96979 C 191.3819,182.66172 179.90719,193.14627 165.7642,193.14627 L 34.23583,193.14627 C 20.06278,193.14627 8.56196,182.6188 7.03396,168.88411 z"
     id="path2994"
     style="fill:#232341;fill-rule:evenodd" />
  <path
     d="M 36.4551,169.73654 C 35.00316,169.80712 33.7537,170.78589 33.33758,172.17865 C 32.92146,173.57142 33.42926,175.07516 34.60452,175.93059 L 41.19297,180.84813 L 34.8187,186.10836 C 33.359,187.31489 33.15378,189.47628 34.3604,190.93594 C 35.56691,192.39561 37.72838,192.60081 39.1882,191.39429 L 48.92083,183.34974 C 49.73231,182.68047 50.19148,181.67566 50.16646,180.62413 C 50.14133,179.57262 49.63483,178.59084 48.79232,177.961 L 38.69984,170.43905 C 38.05785,169.94745 37.26276,169.69863 36.4551,169.73654 z"
     id="path2996"
     style="fill:#323264" />
  <path
     d="M 18.27205,55.19545 C 17.82413,55.17797 17.40749,55.82728 17.18167,56.89474 C 16.95584,57.96219 16.95584,59.28242 17.18167,60.34988 C 17.40749,61.41734 17.82413,62.06665 18.27205,62.04916 L 62.11565,62.04916 C 62.56357,62.06665 62.9802,61.41734 63.20603,60.34988 C 63.43182,59.28242 63.43182,57.96219 63.20603,56.89474 C 62.9802,55.82728 62.56357,55.17797 62.11565,55.19545 L 18.27205,55.19545 z"
     id="path2998"
     style="fill:#323264" />
  <path
     d="M 18.27205,78.24538 C 17.82413,78.2279 17.40749,78.87721 17.18167,79.94467 C 16.95584,81.01212 16.95584,82.33236 17.18167,83.39981 C 17.40749,84.46727 17.82413,85.11658 18.27205,85.0991 L 62.11565,85.0991 C 62.56357,85.11658 62.9802,84.46727 63.20603,83.39981 C 63.43182,82.33236 63.43182,81.01212 63.20603,79.94467 C 62.9802,78.87721 62.56357,78.2279 62.11565,78.24538 L 18.27205,78.24538 z"
     id="path3000"
     style="fill:#323264" />
  <path
     d="M 18.27205,101.29532 C 17.82413,101.27783 17.40749,101.92714 17.18167,102.9946 C 16.95584,104.06205 16.95584,105.38229 17.18167,106.44974 C 17.40749,107.5172 17.82413,108.16651 18.27205,108.14903 L 62.11565,108.14903 C 62.56357,108.16651 62.9802,107.5172 63.20603,106.44974 C 63.43182,105.38229 63.43182,104.06205 63.20603,102.9946 C 62.9802,101.92714 62.56357,101.27783 62.11565,101.29532 L 18.27205,101.29532 z"
     id="path3002"
     style="fill:#323264" />
  <path
     d="M 18.27205,124.34524 C 17.82413,124.32775 17.40749,124.97706 17.18167,126.04452 C 16.95584,127.11198 16.95584,128.43221 17.18167,129.49966 C 17.40749,130.56712 17.82413,131.21643 18.27205,131.19895 L 62.11565,131.19895 C 62.56357,131.21643 62.9802,130.56712 63.20603,129.49966 C 63.43182,128.43221 63.43182,127.11198 63.20603,126.04452 C 62.9802,124.97706 62.56357,124.32775 62.11565,124.34524 L 18.27205,124.34524 z"
     id="path3004"
     style="fill:#323264" />
  <path
     d="M 117.08739,55.19545 C 116.63947,55.17797 116.22284,55.82728 115.99702,56.89474 C 115.77119,57.96219 115.77119,59.28242 115.99702,60.34988 C 116.22284,61.41734 116.63947,62.06665 117.08739,62.04916 L 160.93099,62.04916 C 161.37891,62.06665 161.79555,61.41734 162.02138,60.34988 C 162.24716,59.28242 162.24716,57.96219 162.02138,56.89474 C 161.79555,55.82728 161.37891,55.17797 160.93099,55.19545 L 117.08739,55.19545 z"
     id="path3006"
     style="fill:#323264" />
  <path
     d="M 117.08739,78.24538 C 116.63947,78.2279 116.22284,78.87721 115.99702,79.94467 C 115.77119,81.01212 115.77119,82.33236 115.99702,83.39981 C 116.22284,84.46727 116.63947,85.11658 117.08739,85.0991 L 160.93099,85.0991 C 161.37891,85.11658 161.79555,84.46727 162.02138,83.39981 C 162.24716,82.33236 162.24716,81.01212 162.02138,79.94467 C 161.79555,78.87721 161.37891,78.2279 160.93099,78.24538 L 117.08739,78.24538 z"
     id="path3008"
     style="fill:#323264" />
  <path
     d="M 82.06665,45.68601 C 81.48595,45.65171 80.88194,45.66785 80.2393,45.76037 C 79.58534,45.85454 78.99999,46.01065 78.4974,46.18918 C 77.93801,46.38794 77.41034,46.6403 76.91931,46.93147 C 76.44053,47.21541 75.96832,47.55395 75.52232,47.95028 C 75.07747,48.34558 74.68504,48.77489 74.34608,49.21756 C 74.0512,49.60292 73.72008,50.08812 73.41526,50.70443 C 73.1194,51.30265 72.92422,51.86009 72.78431,52.38367 C 72.65302,52.87796 72.58469,53.38687 72.58095,53.8983 C 72.57708,54.41159 72.57365,54.90098 72.57046,55.36353 C 72.57046,55.36353 72.51315,145.97812 72.51315,145.97812 C 72.51314,146.22768 72.50626,146.52297 72.50632,146.86634 C 72.50662,147.50433 72.60763,148.13831 72.80548,148.74483 C 72.27988,147.13297 72.24971,147.21229 72.86955,148.94608 C 73.22466,149.94595 73.76154,150.78134 74.3548,151.44904 C 74.94863,152.11742 75.72291,152.75662 76.67275,153.22647 C 77.59494,153.68245 78.59115,153.93978 79.61217,154.00008 C 80.63299,154.06036 81.68064,153.90906 82.61458,153.57734 C 84.58662,152.87682 84.77475,152.5686 83.30926,153.2614 C 83.63381,153.10995 83.94438,152.93001 84.23721,152.72376 C 84.80123,152.322 84.76249,152.39384 84.2381,152.70864 C 84.3406,152.64167 84.44092,152.57159 84.53912,152.49854 C 84.63309,152.42786 84.74445,152.34165 84.87312,152.24485 C 84.87312,152.24485 103.39865,138.2244 103.39865,138.2244 C 103.39865,138.2244 120.71536,170.65298 120.71536,170.65298 C 120.87015,170.94864 121.04908,171.23103 121.25037,171.49727 C 122.21811,172.77119 123.68022,174.12736 125.81115,174.78185 C 127.94209,175.43634 130.45468,175.06419 132.24376,174.15155 C 139.08302,170.84996 145.5194,167.76579 152.3747,164.45642 C 152.43534,164.42554 152.49544,164.39362 152.55502,164.36072 C 154.62758,163.27222 156.39309,160.76383 156.72565,158.56124 C 157.05828,156.35868 156.5169,154.68433 155.89471,153.33988 C 155.83558,153.21243 155.77207,153.0871 155.70425,152.96406 C 155.70425,152.96406 138.54853,121.15261 138.54853,121.15261 C 138.54853,121.15261 151.9679,117.8643 158.67926,116.21962 C 159.06864,116.12422 159.48478,116.0199 159.92026,115.91315 C 160.50592,115.77163 161.06723,115.54368 161.58572,115.23677 C 161.02831,115.56933 161.59856,115.4624 162.83744,114.36131 C 163.60732,113.6774 164.24842,112.83974 164.71474,111.89739 C 164.90123,111.52023 165.12157,111.02566 165.28948,110.39712 C 165.44709,109.80672 165.51574,109.2659 165.54448,108.77921 C 165.57314,108.29381 165.569,107.74893 165.48168,107.14254 C 165.38888,106.49928 165.22761,105.98869 165.08707,105.5926 C 164.68293,104.45521 164.13562,103.70459 163.78883,103.26779 C 163.44264,102.83402 163.03847,102.44981 162.58784,102.12594 C 162.27279,101.89804 161.96773,101.67957 161.66987,101.46412 C 161.66987,101.46412 87.35299,47.87417 87.35299,47.87417 C 86.98011,47.60522 86.59723,47.33485 86.20893,47.05469 C 85.82763,46.7786 85.41567,46.54781 84.98112,46.36698 C 85.09554,46.41431 84.73137,46.20592 83.8649,45.97446 C 83.25747,45.81231 82.64725,45.72029 82.06665,45.68601 z"
     id="path3010"
     style="fill:#ffffff" />
  <path
     d="M 81.70682,51.73832 C 81.50117,51.72617 81.29674,51.73325 81.10042,51.76151 C 80.90423,51.78977 80.714,51.84005 80.53134,51.90496 C 80.34866,51.96985 80.17515,52.05182 80.01031,52.14959 C 79.84546,52.24736 79.69062,52.35933 79.54779,52.4862 C 79.40506,52.6131 79.27556,52.75364 79.15902,52.90586 C 79.04262,53.05807 78.93586,53.22037 78.84985,53.39417 C 78.76391,53.56792 78.69622,53.75605 78.6451,53.94763 C 78.64144,54.43436 78.64089,54.92107 78.63754,55.40782 C 78.63754,55.40782 78.57588,145.97796 78.57588,145.97796 C 78.5759,146.27459 78.57251,146.57126 78.57254,146.8679 C 78.57665,146.88047 78.57558,146.89526 78.57997,146.90768 C 78.64836,147.09998 78.7554,147.27234 78.88892,147.42265 C 79.02246,147.57295 79.18103,147.69955 79.36391,147.79004 C 79.54691,147.88051 79.75299,147.93594 79.96933,147.94872 C 80.18579,147.9615 80.39202,147.93041 80.58439,147.86211 C 80.63367,147.84455 80.66991,147.80363 80.71694,147.7814 C 80.7746,147.74037 80.83476,147.67926 80.89196,147.6491 C 81.00339,147.56534 81.11515,147.48219 81.22646,147.39839 C 81.22646,147.39839 105.40277,129.10013 105.40277,129.10013 C 105.40277,129.10013 126.0787,167.82529 126.0787,167.82529 C 126.95486,168.97866 128.10401,169.45441 129.48654,168.74916 C 129.48654,168.74916 149.7353,158.99291 149.7353,158.99291 C 150.94415,158.35797 150.94935,157.09039 150.39109,155.88415 C 150.39109,155.88415 129.52081,117.11799 129.52081,117.11799 C 129.52081,117.11799 157.23736,110.3253 157.23736,110.3253 C 157.64972,110.22428 158.06253,110.12567 158.47479,110.02463 C 158.58586,109.95836 158.7098,109.9134 158.80612,109.8278 C 159.0016,109.6542 159.16288,109.44442 159.28059,109.20663 C 159.33935,109.08773 159.39063,108.96267 159.42568,108.8316 C 159.46065,108.70053 159.48088,108.56292 159.48919,108.42225 C 159.49749,108.28157 159.4936,108.14254 159.4743,108.00826 C 159.45492,107.87399 159.41872,107.74375 159.37436,107.61877 C 159.29836,107.40494 159.17357,107.21809 159.03452,107.04296 C 158.72819,106.82133 158.42116,106.60044 158.11475,106.37882 C 158.11475,106.37882 83.80333,52.79651 83.80333,52.79651 C 83.42274,52.52195 83.0425,52.24632 82.66188,51.97174 C 82.54311,51.92263 82.42739,51.86611 82.30122,51.83241 C 82.10959,51.78124 81.91243,51.75046 81.70682,51.73832 z"
     id="path3012"
     style="fill:#232341" />
</svg>

<svg xmlns="http://www.w3.org/2000/svg" width="200" height="200" version="1.0"><path d="M1.356 168.25 18.611 194h163.154l16.058-25.75H1.356z" style="fill:#bebed2"/><path d="M196.573 36.316H3.42V165.44h193.154V36.316z" style="fill:#9696ff"/><path d="M18.486 5.427 1.92 33.234h196.404L180.515 5.427H18.486z" style="fill:#bebed2"/><path d="M31.685 16.653a3.427 3.427 0 1 0 0 6.854H152.66a3.427 3.427 0 1 0 0-6.854H31.685z" style="fill:#323264"/><path d="M34.236 0C15.328 0 0 15.327 0 34.234v131.532C0 184.673 15.328 200 34.236 200h131.528C184.672 200 200 184.673 200 165.766V34.234C200 15.327 184.672 0 165.764 0H34.236zm0 6.854h131.528c14.486 0 26.162 11 27.27 25.179L6.966 31.947C8.113 17.809 19.78 6.854 34.235 6.854zM6.854 38.8l89.762.042-.094 123.23-89.668-.043V38.8zm96.616.042 89.676.043v123.23l-89.77-.043.094-123.23zM7.034 168.884l185.915.086c-1.567 13.692-13.042 24.176-27.185 24.176H34.236c-14.173 0-25.674-10.527-27.202-24.262z" style="fill:#232341;fill-rule:evenodd"/><path d="M36.455 169.737a3.427 3.427 0 0 0-1.85 6.194l6.588 4.917-6.374 5.26a3.429 3.429 0 1 0 4.37 5.286l9.732-8.044a3.427 3.427 0 0 0-.129-5.389L38.7 170.439a3.428 3.428 0 0 0-2.245-.702zM18.272 55.195c-.448-.017-.865.632-1.09 1.7a8.895 8.895 0 0 0 0 3.455c.225 1.067.642 1.717 1.09 1.7h43.844c.448.017.864-.633 1.09-1.7a8.897 8.897 0 0 0 0-3.455c-.226-1.068-.642-1.717-1.09-1.7H18.272zm0 23.05c-.448-.017-.865.632-1.09 1.7a8.895 8.895 0 0 0 0 3.455c.225 1.067.642 1.717 1.09 1.7h43.844c.448.017.864-.633 1.09-1.7a8.897 8.897 0 0 0 0-3.455c-.226-1.068-.642-1.717-1.09-1.7H18.272zm0 23.05c-.448-.017-.865.632-1.09 1.7a8.895 8.895 0 0 0 0 3.455c.225 1.067.642 1.717 1.09 1.699h43.844c.448.018.864-.632 1.09-1.7a8.897 8.897 0 0 0 0-3.454c-.226-1.068-.642-1.717-1.09-1.7H18.272zm0 23.05c-.448-.017-.865.632-1.09 1.7a8.895 8.895 0 0 0 0 3.455c.225 1.067.642 1.716 1.09 1.699h43.844c.448.017.864-.632 1.09-1.7a8.897 8.897 0 0 0 0-3.454c-.226-1.068-.642-1.717-1.09-1.7H18.272zm98.815-69.15c-.448-.017-.864.632-1.09 1.7a8.895 8.895 0 0 0 0 3.455c.226 1.067.642 1.717 1.09 1.7h43.844c.448.017.865-.633 1.09-1.7a8.897 8.897 0 0 0 0-3.455c-.225-1.068-.642-1.717-1.09-1.7h-43.844zm0 23.05c-.448-.017-.864.632-1.09 1.7a8.895 8.895 0 0 0 0 3.455c.226 1.067.642 1.717 1.09 1.7h43.844c.448.017.865-.633 1.09-1.7a8.897 8.897 0 0 0 0-3.455c-.225-1.068-.642-1.717-1.09-1.7h-43.844z" style="fill:#323264"/><path d="M82.067 45.686a8.994 8.994 0 0 0-5.148 1.245 9.067 9.067 0 0 0-1.397 1.02 9.09 9.09 0 0 0-1.176 1.267 8.943 8.943 0 0 0-1.562 3.166 6.073 6.073 0 0 0-.203 1.514l-.01 1.466-.058 90.614c0 .25-.007.545-.007.888 0 .638.102 1.272.3 1.879-.526-1.612-.556-1.533.064.201a7.6 7.6 0 0 0 1.485 2.503 7.658 7.658 0 0 0 2.318 1.777 7.628 7.628 0 0 0 2.94.774 7.73 7.73 0 0 0 3.002-.423c1.972-.7 2.16-1.008.694-.316.325-.151.635-.331.928-.537.564-.402.525-.33.001-.015.103-.067.203-.137.301-.21l.334-.254 18.526-14.02 17.316 32.428c.155.296.334.578.535.844.968 1.274 2.43 2.63 4.561 3.285 2.131.654 4.644.282 6.433-.63 6.839-3.302 13.275-6.386 20.13-9.696.061-.03.121-.062.181-.095 2.073-1.089 3.838-3.597 4.17-5.8.333-2.202-.208-3.877-.83-5.221a6.074 6.074 0 0 0-.19-.376l-17.156-31.811 20.13-4.933 1.241-.307a6.067 6.067 0 0 0 1.666-.676c-.558.332.013.225 1.251-.876a8.109 8.109 0 0 0 1.878-2.464 7.95 7.95 0 0 0 .574-1.5 8.04 8.04 0 0 0 .255-1.618 8.032 8.032 0 0 0-.062-1.636 7.88 7.88 0 0 0-.395-1.55 7.903 7.903 0 0 0-1.298-2.325 6.066 6.066 0 0 0-1.201-1.142l-.918-.662-74.317-53.59c-.373-.269-.756-.54-1.144-.82a6.07 6.07 0 0 0-1.228-.687c.115.047-.25-.161-1.116-.393a9.082 9.082 0 0 0-1.798-.288z" style="fill:#fff"/><path d="M81.707 51.738a3.02 3.02 0 0 0-.607.024 2.963 2.963 0 0 0-.569.143 2.964 2.964 0 0 0-.983.581 3.002 3.002 0 0 0-.389.42 2.998 2.998 0 0 0-.31.488 2.996 2.996 0 0 0-.204.554c-.004.486-.004.973-.007 1.46l-.062 90.57c0 .297-.003.593-.003.89.004.012.003.027.007.04.068.192.175.364.309.515.133.15.292.277.475.367a1.577 1.577 0 0 0 1.22.072c.05-.017.086-.058.133-.08.058-.042.118-.103.175-.133l.334-.25 24.177-18.299 20.676 38.725c.876 1.154 2.025 1.63 3.408.924l20.248-9.756c1.21-.635 1.214-1.903.656-3.109l-20.87-38.766 27.716-6.793 1.238-.3c.11-.067.235-.112.331-.197a2.04 2.04 0 0 0 .475-.621c.058-.12.11-.244.145-.375a2.05 2.05 0 0 0 .063-.41c.008-.14.005-.28-.015-.414a2.038 2.038 0 0 0-.1-.39c-.076-.213-.2-.4-.34-.575l-.92-.664-74.31-53.582-1.142-.825c-.119-.05-.235-.106-.36-.14a2.97 2.97 0 0 0-.595-.094z" style="fill:#232341"/></svg>
